X:44
T:La belle barbière
O:France
B:Le livre des Chansons (Henri Davenson) n°44
Z:<anamnese@caramail.com> -- http://anamnese.fr.st
M:2/4
L:1/8
Q:1/4=120
K:Bb
B c | d d c B | d c B c|\
 d d c B | c2-c z | d3 c |!
M:3/4
L:1/8
B d c3 (B/A/) |\
M:2/4
L:1/8
G2  F z | c d e d | c2 (GA) | B2 ||
W:Dans Paris y a une barbière qui est plus belle que le jour ;
W:Ce sont trois gentilshommes qui voudraient lui faire l'amour.
W:Ils se disent les uns aux autres : "Las ! Comment lui parlerons-nous ?
W:- Il faut lui donner une aubade demain matin, au point du jour."
W:/.../

